X: 1
T:Kas a barh
C:Loffet 8
M:C
L:1/8
K:G
B2Ac B3A|G2B2 ABAG|B2Ac B3A|\
G2B2 A4:|B2c2d2d2|
c2B2A2G2|:B2Ac B3A|G2 FG ABAG|\
B2AB c2 BA|G2F2G4:|
